!! 00000] TT[WS
!!!OTL: Mama rangwu dangbiang qu
!!!ARE: Asia, China, Shanxi Jingle
!! Ethnic Group: Han
!! WII, 227 (2)
!!!SCT: J0738
!!!YEM: Copyright 1995, estate of Helmut Schaffrath.
**kern
*ICvox
*Ivox
*M2/4
*k[b-]
*F:
{8ff
8ee-
8ee-
8dd
=1
8dd
8a
4cc
=2
8ff
8ee-
8ee-
8dd
=3
8dd
8a
4cc}
=4
{4a
8a
8cc
=5
8ff
8ee-
8ee-
8dd
=6
8dd
8a
8cc
8dd
=7
2cc}
=8
{4f
8f
8d
=9
4ff
8ff
8dd
=10
4cc
8ff
8ff}
=11
{8g
8a
8g
8a
=12
4cc
8cc
8g
=13
8a
8cc
8a
8g
=14
2f}
==
!!!AGN: Xiaodiao. XÅshi, Xinminge
!!!ONB: ESAC (Essen Associative Code) Database: CHINA
!!!AMT: simple duple
!!!AIN: vox
!!!EED: Helmut Schaffrath
!!!EEV: 1.0
*-
